X:44
T:Folia Variations (Op.5 No.12)
C:Corelli, A.
M:3/4
L:1/8
Q:1/4=56
K:Dmin
|:A2|d4 cd|e2 dc B2|c4 Bc|d4 A2|
d4 ef|g2 fe d2|A4 Bc|d4:|

